X:920
T:Moladh Na Lanndaidh
C:Joe Buchanan's Scottish Tome - Page 542.1
I:542 1
Z:Carl Allison
R:Waltz
L:1/4
M:3/4
K:D
"D"F2 E | "D"D2 G | "Bm"F2 G | "A7"A3 | "D"A2 f | "F#7"e2 c | "G"d2 B | "A7"A3 |
"D"F2 G | "D7"A2 A | "G"B2 c | "E7"d2 c | "D"B A2 | "Bm"d2 F | "A7"E3 | "D"D3 |]

